X: 14722
T: Gan Ainm
R: jig
M: 6/8
K: Bminor
|:CDB, DFG|AGF dd/d/d|BdB fBd|dcA EE/E/E|
EFc dcF|ABG FED|cAB ^GEC|DB,F B2 z:|
|:BB/B/B fed|eBc ABF|FGd dcd|ecA FF/F/F|
FGB BAB|Bcd cde|fef dec|cBA B2 z:|

